X:7872
T:Bohemian christmas song
C:anon.
O:Czech Republic
A:Bohemia
Z:Transcribed by Frank Nordberg - http://www.musicaviva.com
F:http://abc.musicaviva.com/tunes/czech/bohemian-christmas-song.abc
M:C|
L:1/4
K:F
FGAB|ccc2|Bcd2|c3z|ccBB|AAG2|ABG2|
F3z|:AGAB|c3B|A3z:|c2F2|F2d2|cAG2|F3z|]
W:
W:
W:  From Musica Viva - http://www.musicaviva.com
W:  the Internet center for free sheet music downloads.
